X:11
T:Trip to Hanover. Ca1758.035, A
M:C
L:1/8
Q:1/4=120
B:Cahusac,T. 24 Country Dances for the Year 1758
Z:vmp.Mike Hicken 2015 www.village-music-project.org.uk
K:G
G/A/B/c/ dB dfgd|cBAG AFED|G/A/B/c/ dB dfga|fde^c d4 :|
|:dB/c/ dB cAFD|BA/B/ cA BGFD|G/A/B/c/ dB dfgd|BGAF G4 :|
W:
W: The 1st. Cu. lead down the 2d. Cu. &
W: cross over the 3d. Cu. .|  the same back
W: again :|  Right hands across all 4 .|
W: the same back again :|

